X:19
T:Inisheer
M:3/4
R:Waltz
S:phelan-2/43b
L:1/8
K:D
D2 |  B3A Bd | B3A Bd | E3B AB    |  D3B AG        |
      B3A Bd | B3A Bd | G3B (3AGF |1 G4           :|2 G3    ||
   |: A   Bd | e3f ed | B3A Bd    |  ef  ed (3Bcd  |  e4 Bd  |
      e3f ed | B3A Bd | G3B (3AGF |1 G3           :|2 G4     |]

